!!!!SEGMENT: pl-wtm--r-1417--002_damse-jozef--marsz-polaczonych-polakow.krn
!!!cenid: 18xx:2038
!!!COM: Damse, Józef
!!!COM-rismid: pe30008765
!!!CDT: 1789-1852
!!!CNT:
!!!OTL: Marsz połączonych Polaków
!!!PDT:
!!!AGN: Secular; March
!!!SMS-siglum: PL-Wtm
!!!SMS-shelfmark: R 1417
!!!SMS-shelfwork: W
!!!SMS-variant:
!!!SMS-altvar:
!!!NIFC-rismid: 1001116005
!!!URL-scan: http://repozytorium.nifc.pl/skany/pl-wtm-nut--r1416--1419
!!!ONB-nifc: UWAGA: utwory w zbiorze: 1. Bitwa pod Ostrołęką, 2. Marsz połączonych Polaków, 3. Marsz Podchorążych, 4. Polonez. Każdy utwór ma własną sygnaturę (R 1416-1419)
!!!key:
**kern	**kern
*part2	*part1
*staff2	*staff1
*Iforte	*Iforte
*I"Fortepian	*I"Fortepian
*clefF4	*clefG2
*k[]	*k[]
*F:	*F:
*M2/4	*M2/4
*>[A,A,B,C,C,D,E,E]	*>[A,A,B,C,C,D,E,E]
*>A	*>A
*	*Xtuplet
*	*rscale:1/2
!	!LO:TX:a:t=Marsʒ połączonych Polaków. p Damse
8r	24gg\LL
.	24aa\
.	24bb\JJ
*	*rscale:1
=1	=1
4c 4C\	4ccc 4cc\
8BL 8BB\	8bbL 8b\
8AJ 8AA\	8aaJ 8a\
=2	=2
8GL 8GG\	8ggL 8g\
8A 8AA\	8aa 8a\
8F 8FF\	8ff 8f\
8GJ 8GG\	8ggJ 8g\
=3	=3
8EL 8EE/	8eeL 8e/
8F 8FF/	8ff 8f/
8D 8DD/	8dd 8d/
8EJ 8EE/	8eeJ 8e/
=4	=4
!LO:TX:t=P:problem=mixed beam	!
8CL 8CC/	8ccL 8c/
8cJ 8G 8E 8C\	8ccJ 8g 8e/
4c 4G 4E 4C\	4cc 4g 4e/
*clefG2	*
=5||	=5||
*tremolo	*
8gL 8e 8c/	8cc\L
8g 8e 8c/	8dd\
8g 8e 8c/	8ee\
8gJ 8e 8c/	8ff\J
*Xtremolo	*
=6	=6
8gL 8e 8c/	8gg\L
8f#X 8d#X 8c/	8ff#X\
8g 8e 8c/	8aa\
8f#J 8d# 8c/	8gg\J
=7	=7
*rep	*
8gL 8e 8c/	8gg\L
8f#X 8d#X 8c/	8ff#X\
8g 8e 8c/	8aa\
8f#J 8d# 8c/	8gg\J
*Xrep	*
=8	=8
*rep	*
8gL 8e 8c/	8gg\L
8f#X 8d#X 8c/	8ff#X\
8g 8e 8c/	8aa\
8f#J 8d# 8c/	8gg\J
*Xrep	*
=9	=9
*rep	*
8gL 8e 8c/	8gg\L
8f#X 8d#X 8c/	8ff#X\
8g 8e 8c/	8aa\
8f#J 8d# 8c/	8gg\J
*Xrep	*
=10	=10
8fnL 8d 8B/	8gg\L
8G/	8gg\
8f 8d 8B/	8ff\
8G/J	8dd\J
=11	=11
*tremolo	*
8eL 8c/	8cc\
8G/	4ee\
8e 8c/	.
8G/J	8cc\
=12	=12
8fL 8d 8B/	8gg\L
8G/	8gg\
8f 8d 8B/	8ff\
8G/J	8dd\J
=13	=13
8eL 8c/	8cc\L
8G/	8ee\
8e 8c/	16cc\L
.	16dd\
8G/J	16ee\
.	16ff\JJ
*Xtremolo	*
*clefF4	*
=14	=14
16C\LL	4gg 4g\
16G\	.
16E\	.
16G\JJ	.
16BB\LL	8ff\L
16G\	.
16D\	8dd\J
16G\JJ	.
=15	=15
*rep	*
16C\LL	8cc\L
16G\	.
16E\	8ee\
16G\JJ	.
16BB\LL	8dd\
16G\	.
16D\	8g\J
16G\JJ	.
*Xrep	*
=16	=16
*rep	*
16C\LL	8gg\L
16G\	.
16E\	8gg\
16G\JJ	.
16BB\LL	8ff\
16G\	.
16D\	8dd\J
16G\JJ	.
*Xrep	*
=17	=17
*rep	*
16C\LL	8cc\L
16G\	.
16E\	8ee\J
16G\JJ	.
16BB\LL	8dd/L
16G\	.
16D\	8g/J
16G\JJ	.
*Xrep	*
=18	=18
8C\L	8cc\L
8G 8E\	8dd\
8C\	8ee\
8GJ 8E\	8ff\J
=19	=19
8C\L	4gg 4g\
8G 8E\	.
8C\	4cc 4c/
8GJ 8E\	.
=20	=20
8C\L	8aaL 8ff 8cc\
16cL 16A 16F\	16aaL 16ff 16cc\
16cJJ 16A 16F\	16aaJJ 16ff 16cc\
8C\L	8aaL 8ff 8cc\
8cJ 8A 8F\	8aaJ 8ff 8cc\
!!LO:LB:g=original
=21	=21
8C\L	4gg\
8c 8G 8E\	.
8C\	4cc\
8cJ 8G 8E\	.
=22	=22
16BB\LL	8ff\L
16G\	.
16D\	16ff\L
16G\JJ	16ff\JJ
*rep	*
16BB\LL	8aa\L
16G\	.
16D\	8ff\J
16G\JJ	.
*Xrep	*
=23	=23
16C\LL	8ee\L
16G\	.
16E\	16ee\L
16G\JJ	16ee\JJ
*rep	*
16C\LL	8gg\L
16G\	.
16E\	8ee\J
16G\JJ	.
*Xrep	*
=24	=24
16GG\LL	8dd\L
16G\	.
16D\	16dd\L
16G\JJ	16dd\JJ
*rep	*
16GG\LL	8ff\L
16G\	.
16D\	8dd\J
16G\JJ	.
*Xrep	*
=25	=25
16C\LL	16cc\LL
16G\	16dd\
16E\	16ee\
16G\JJ	16ff\JJ
*rep	*
16C\LL	16gg\LL
16G\	16aa\
16E\	16bb\
16G\JJ	16ccc\JJ
*Xrep	*
=26	=26
16BB\LL	8ff\L
16G\	.
16D\	16ff\L
16G\JJ	16ff\JJ
*rep	*
16BB\LL	8aa\L
16G\	.
16D\	8ff\J
16G\JJ	.
*Xrep	*
=27	=27
16C\LL	8ee\L
16G\	.
16E\	16ee\L
16G\JJ	16ee\JJ
*rep	*
16C\LL	8gg\L
16G\	.
16E\	8ee\J
16G\JJ	.
*Xrep	*
=28	=28
16GG\LL	16dd\LL
16G\	16cc#X\
16D\	16dd\
16G\JJ	16ee\JJ
*rep	*
16GG\LL	16ff\LL
16G\	16gg\
16D\	16aa\
16G\JJ	16bb\JJ
*Xrep	*
=29	=29
8C\L	8ccc\L
8cJ 8G 8C\	8eeeJ 8gg\
4c 4G 4C\	4ccc 4gg\
=30:|!|:	=30:|!|:
*>B	*>B
.	32qqee\LLL
.	32qqff#X\
.	32qqgg#X\JJJ
4A 4AA/	4aa 4a\
4E 4EE/	4ee 4e/
=31	=31
4.c 4.C\	4.ccc 4.cc\
8B 8BB\	8bb 8b\
=32	=32
8AL 8AA\	8aaL 8a\
8A 8D\	8ff\
8A 8E\	8ee\
8AJ 8F\	8dd#X\J
=33	=33
8BL 8E\	8ee\L
8BJ 8E\	8eeJ 8g#X\
4B 4E'\	4ee 4g#\
=34!|:	=34!|:
!LO:TX:t=P:problem=brak znaku repetycji	!
8A\L	8.aa\L
8eJ 8c\	.
.	16ee\Jk
8A\L	8eeL 8cc\
8eJ 8c\	8eeJ 8cc\
=35	=35
8A\L	8dd#XL 8b\
8d#X 8B\	8dd# 8b\
8A\	8ee 8cc\
8eJ 8c\	8ddnJ 8b\
!!LO:LB:g=original
=36	=36
8A\L	8ccL 8a\
8e 8c\	8b 8g#X\
8A\	8cc 8a\
8eJ 8c\	8ddJ 8b\
=37	=37
*rep	*
8A\L	4ee 4cc\
8e 8c\	.
8A\	4ee 4cc\
8eJ 8c\	.
*Xrep	*
=38	=38
*rep	*
8A\L	8.aaL 8.cc\
8e 8c\	.
.	16eeJk 16cc\
8A\	8eeL 8cc\
8eJ 8c\	8eeJ 8cc\
*Xrep	*
=39	=39
8A\L	8dd#XL 8b\
8d#XJ 8B\	8dd#J 8b\
8A\L	8eeL 8cc\
8eJ 8c\	8ddnJ 8b\
=40	=40
8E\L	8ddL 8b\
8c 8A\	8cc\
8E\	8b\
8dJ 8B\	8g#X\J
=41	=41
8cL 8A\	4a\
8E\	.
.	16qgg#X/
8c 8A\	4aa\
8E\J	.
=42	=42
8BL 8G#X\	8.b\L
8E\	.
.	16b\Jk
8B 8G#\	8.ee\L
8E\J	.
.	16dd\Jk
=43	=43
8cL 8A\	8cc\L
8E\	16b\L
.	16cc\JJ
8c 8A\	16dd\LL
.	16cc\
8E\J	16b\
.	16a\JJ
=44	=44
8dL 8B\	8.dd\L
8G\	.
.	16dd\Jk
8d 8B\	8.ggL 8.g\
8G\J	.
.	16ff\Jk
=45	=45
8eL 8c\	8ee\L
8G\	16dd\L
.	16ee\
8e 8c\	16ff\
.	16ee\
8G\J	16dd\
.	16cc\JJ
=46	=46
8cL 8A 8F 8C\	8cccL 8cc\
16cL 16A 16F 16C\	16cccL 16cc\
16cJJ 16A 16F 16C\	16cccJJ 16cc\
8cL 8A 8F 8C\	8cccL 8cc\
8cJ 8A 8F 8C\	8cccJ 8cc\
=47	=47
4c 4A 4F#X 4D\	16ccc\LL
.	16bb\
.	16aa\
.	16gg\JJ
4r	16ff#X\LL
.	16dd\
.	16ee\
.	16ff#\JJ
=48	=48
8BL 8G\	8gg\L
8D\	8gg\J
.	8qbb/
8c 8F#X\	16aa\LL
.	16gg#X\
8D\J	16aa\
.	16bb\JJ
=49	=49
8BL 8G\	8gg\L
8G'J 8D 8GG\	8ggJ 8b\
4G 4D 4GG\	4gg 4b\
=50||	=50||
*tremolo	*
!LO:TX:a:t=P:problem=złe wyświetlanie wartości rytmicznej tremolo	!
!LO:N:TREM:vis=4.	!
12fL 12d 12B 12G\	4g/
12f 12d 12B 12G\	.
12fJ 12d 12B 12G\	.
!LO:TX:a:t=P:problem=złe wyświetlanie wartości rytmicznej tremolo	!
!LO:N:TREM:vis=4.	!
12fL 12d 12B 12G\	16g/LL
.	16b/
12f 12d 12B 12G\	.
.	16dd/
12fJ 12d 12B 12G\	.
.	16ff/JJ
=51	=51
8fL 8d 8B 8G\	8ff\L
.	8qgg/
8fJ 8d 8B 8G\	8ff\
8eL 8c 8G\	8ee\
8eJ 8c 8G\	8cc\J
*Xtremolo	*
!!LO:LB:g=original
=52	=52
8eL 8c 8G\	8ee\L
8eJ 8c 8G\	8gg\J
4f 4d 4B 4G\	4ff\
=53	=53
*rep	*
8eL 8c 8G\	8ee\L
8eJ 8c 8G\	8gg\J
4f 4d 4B 4G\	4ff\
*Xrep	*
=54	=54
*tremolo	*
8fL 8d 8B 8G\	4g/
8fJ 8d 8B 8G\	.
8fL 8d 8B 8G\	16g\LL
.	16b\
8fJ 8d 8B 8G\	16dd\
.	16ff\JJ
=55	=55
8fL 8d 8B 8G\	8ff\L
.	8qgg/
8fJ 8d 8B 8G\	8ff\
8eL 8c 8G\	8ee\
8eJ 8c 8G\	8cc\J
*Xtremolo	*
=56	=56
8cL 8A 8F#X 8D\	8a/L
8cJ 8A 8F# 8D\	8b/J
4B 4G\	4g/
=57	=57
*rep	*
8cL 8A 8F#X 8D\	8a/L
8cJ 8A 8F# 8D\	8b/J
4B 4G\	4g/
*Xrep	*
=58||	=58||
16BB\LL	4gg\
16G\	.
16D\	.
16G\JJ	.
*rep	*
16BB\LL	16gg\LL
16G\	16aa\
16D\	16ff\
16G\JJ	16dd\JJ
*Xrep	*
=59	=59
16C\LL	8ee\L
16G\	.
16E\	8ee\J
16G\JJ	.
*rep	*
16C\LL	8cc\L
16G\	.
16E\	16b\L
16G\JJ	16a\JJ
*Xrep	*
=60	=60
16GG\LL	16g\LL
16G\	16a\
16D\	16b\
16G\JJ	16cc\JJ
*rep	*
16GG\LL	16dd\LL
16G\	16ee\
16D\	16ff\
16G\JJ	16dd\JJ
*Xrep	*
=61	=61
16C\LL	16cc\LL
16G\	16dd\
16E\	16ee\
16G\JJ	16ff\JJ
*rep	*
16C\LL	16gg\LL
16G\	16aa\
16E\	16bb\
16G\JJ	16ccc\JJ
*Xrep	*
=62	=62
16BB\LL	4gg\
16G\	.
16D\	.
16G\JJ	.
*rep	*
16BB\LL	16gg\LL
16G\	16aa\
16D\	16ff\
16G\JJ	16dd\JJ
*Xrep	*
=63	=63
16C\LL	8ee\L
16G\	.
16E\	8ee\J
16G\JJ	.
*rep	*
16C\LL	8cc\L
16G\	.
16E\	16b\L
16G\JJ	16a\JJ
*Xrep	*
=64	=64
16GG\LL	16g\LL
16G\	16a\
16D\	16b\
16G\JJ	16cc\JJ
*rep	*
16GG\LL	16dd\LL
16G\	16ee\
16D\	16ff\
16G\JJ	16dd\JJ
*Xrep	*
=65	=65
8C\L	8cc\L
8cJ 8G 8C\	8eeJ 8g\
4c 4G 4C\	4cc 4e/
=66||	=66||
!!!OMD: Trio
*clefF4	*clefG2
*k[b-]	*k[b-]
*M2/4	*M2/4
8AL 8F\	8aL 8f 8c/
16AL 16F\	16aL 16f 16c/
16AJJ 16F\	16aJJ 16f 16c/
8AL 8F\	8aL 8f 8c/
8AJ 8F\	8aJ 8f 8c/
=67	=67
8AL 8F\	8aL 8f 8c/
8G 8C\	8b- 8g 8e 8c/
8A 8F\	8a 8f 8c/
8GJ 8C\	8b-J 8g 8e 8c/
=68	=68
!	!LO:TX:t=P:problem=tt.68-69 zapisane repetycją, adnotacja "bis"
8ALyy 8Fyy\	8aLyy 8fyy 8cyy/
16ALyy 16Fyy\	16aLyy 16fyy 16cyy/
16AJJyy 16Fyy\	16aJJyy 16fyy 16cyy/
8ALyy 8Fyy\	8aLyy 8fyy 8cyy/
8AJyy 8Fyy\	8aJyy 8fyy 8cyy/
=69	=69
8ALyy 8Fyy\	8aLyy 8fyy 8cyy/
8Gyy 8Cyy\	8b-yy 8gyy 8eyy 8cyy/
8Ayy 8Fyy\	8ayy 8fyy 8cyy/
8GJyy 8Cyy\	8b-Jyy 8gyy 8eyy 8cyy/
!!LO:LB:g=original
=70!|:	=70!|:
*>C	*>C
8AL 8F\	8.ff\L
8cJ 8A\	.
.	16gg\Jk
8AL 8F\	16aa\LL
.	16bb-\
8cJ 8A\	16aa\
.	16gg\JJ
=71	=71
*rep	*
8AL 8F\	8aa\L
8cJ 8A\	8aa\
8AL 8F\	8ff\
8cJ 8A\	8ff\J
*Xrep	*
=72	=72
.	8qaa/
8G 8E\	8gg\
8r	8r
4c 4G 4C\	4bb- 4gg 4ee 4cc\
=73	=73
8C\L	8.ee\L
8cJ 8B- 8G\	.
.	16ff\Jk
8C\L	16gg\LL
.	16aa\
8cJ 8B- 8G\	16gg\
.	16ff#X\JJ
=74	=74
*rep	*
8C\L	8gg\L
8cJ 8B- 8G\	8gg\
8C\L	8ee\
8cJ 8B- 8G\	8ee\J
*Xrep	*
=75	=75
.	8qgg/
8c 8A 8F\	8ff\
8r	8r
4F 4C 4FF/	4aa 4ff 4cc\
=76	=76
8F\L	8.aa\L
8c 8A\	.
.	16bb-\Jk
8F\	16ccc\LL
.	16ddd\
8cJ 8A\	16ccc\
.	16bbn\JJ
=77	=77
*rep	*
8F\L	8ccc\L
8c 8A\	8ccc\
8F\	8aa\
8cJ 8A\	8aa\J
*Xrep	*
=78	=78
.	8qccc/
8d 8B-\	8bb-\
8r	8r
4B- 4F 4BB-\	4ddd 4bb- 4ff\
=79	=79
8C\L	8.gg\L
8c 8G\	.
.	16aa\Jk
8C\	16bb-\LL
.	16ccc\
8cJ 8G\	16bb-\
.	16aa\JJ
=80	=80
*rep	*
8C\L	16bb-\LL
.	16gg\
8c 8G\	16ee\
.	16cc\JJ
8C\	16bn\LL
.	16cc\
8cJ 8G\	16dd\
.	16ee\JJ
*Xrep	*
=81	=81
8cL 8A 8F\	8ff\L
8cJ 8A 8F\	8aaJ 8cc\
4c 4A 4F\	4ff 4a\
*clefG2	*
=82:|!	=82:|!
*>D	*>D
8d/L	4.aa\
8a 8f/	.
8d/	.
8aJ 8f/	8aa\
=83	=83
8d/L	8.bb-\L
8b- 8g/	.
.	16aa\Jk
8d/	8gg\L
8b-J 8g/	16ff\L
.	16ee\JJ
=84	=84
8d/L	8.dd\L
8a 8f/	.
.	16ff\Jk
8d/	8.aa\L
8aJ 8f/	.
.	16ff\Jk
=85	=85
8A/L	8.ee\L
8eJ 8c#X/	.
.	16cc#X\Jk
*rep	*
8A/L	8.a/L
8eJ 8c#X/	.
.	16a/Jk
*Xrep	*
=86	=86
8d/L	4.aa\
8a 8f/	.
8d/	.
8aJ 8f/	8aa\
=87	=87
*rep	*
.	8qccc/
8d/L	8.bb-\L
8b- 8g/	.
.	16aa\Jk
8d/	8gg\L
8b-J 8g/	16ff\L
.	16ee\JJ
*Xrep	*
=88	=88
*rep	*
8d/L	8.dd\L
8a 8f/	.
.	16ff\Jk
8d/	8.aa\L
8aJ 8f/	.
.	16ff\Jk
*Xrep	*
=89	=89
8A/L	8.ee\L
8eJ 8c#X/	.
.	16cc#X\Jk
*rep	*
8A/L	8.a/L
8eJ 8c#X/	.
.	16a/Jk
*Xrep	*
=90	=90
8A/L	8a\
8gJ 8e/	4cc#X\
*rep	*
8A/L	.
8gJ 8e/	8ee\
*Xrep	*
=91	=91
.	8qee/
8A/L	16dd\LL
.	16cc#X\
8fJ 8d/	16dd\
.	16ee\JJ
*rep	*
8A/L	8ff\L
8fJ 8d/	8dd\J
*Xrep	*
!!LO:PB:g=original
=92	=92
!LO:TX:t=P:problem=błędnie wpisany klucz basowy	!
8A/L	8.dd\L
8fJ 8d/	.
.	16ff\K
*rep	*
8A/L	8.aa\
8fJ 8d/	.
.	16ff\Jk
*Xrep	*
=93	=93
8A/L	8ee\L
8eJ 8c#X/	16cc#X\L
.	16a\JJ
*rep	*
8A/L	8aa 8ee 8cc#\
8eJ 8c#X/	8r
*Xrep	*
*clefF4	*
=94	=94
8e 8c#X 8A\	8aa 8ee 8cc#X\
8r	8r
8e 8c# 8A\	8aa 8ee 8cc#\
8r	8r
=95	=95
4en 4c 4G\	4bb-X 4gg 4ee 4cc\
4r;	4r;
=96	=96
4e 4c 4G\	16bb-\LL
.	16cc\
!	!LO:N:acc=#
.	16bn\
.	16cc\JJ
4r	16dd\LL
.	16ee\
.	16ff\
.	16gg\JJ
=97!|:	=97!|:
*>E	*>E
8F\L	8.aa\L
8cJ 8A\	.
.	16gg\Jk
*rep	*
8F\L	8.aa\L
8cJ 8A\	.
.	16gg\Jk
*Xrep	*
=98	=98
*rep	*
8F\L	8aa\L
8cJ 8A\	16aa\L
.	16gg\JJ
8F\L	8ff\L
8cJ 8A\	8ff\J
*Xrep	*
=99	=99
8E\L	8.bb-X\L
8cJ 8G\	.
.	16aa\K
*rep	*
8E\L	8.bb-\
8cJ 8G\	.
.	16aa\Jk
*Xrep	*
=100	=100
*rep	*
8E\L	8bb-\L
8cJ 8G\	16bb-\L
.	16aa\JJ
8E\L	8gg\L
8cJ 8G\	8gg\J
*Xrep	*
=101	=101
8F\L	8.aa\L
8cJ 8A\	.
.	16gg\K
*rep	*
8F\L	8.aa\
8cJ 8A\	.
.	16gg\Jk
*Xrep	*
=102	=102
*rep	*
8F\L	8aa\L
8cJ 8A\	16aa\L
.	16gg\JJ
8F\L	8ff\L
8cJ 8A\	8ff\J
*Xrep	*
=103	=103
8C\L	8gg\L
8cJ 8B- 8G\	16gg\L
.	16ff\JJ
*rep	*
8C\L	16ee\LL
.	16cc\
8cJ 8B- 8G\	16dd\
.	16ee\JJ
*Xrep	*
=104||	=104||
8cL 8A 8F\	8ff\L
8cJ 8A 8F\	16ff\L
.	16ff\JJ
*rep	*
8cL 8A 8F\	8ff\L
8cJ 8A 8F\	8ff\J
*Xrep	*
=105	=105
8cL 8B- 8F\	8ee\L
8cJ 8B- 8F\	8cc\J
*rep	*
8cL 8B- 8F\	8.gg\L
8cJ 8B- 8F\	.
.	16ee\Jk
*Xrep	*
=106	=106
!	!LO:TX:t=P:problem=tt. 106-107 zapisane repetycją, adnotacja "bis"
8cLyy 8Ayy 8F\yy	8ff\Lyy
8cJyy 8Ayy 8F\yy	16ff\Lyy
.	16ff\JJyy
*repy	*
8cLyy 8Ayy 8F\yy	8ff\Lyy
8cJyy 8Ayy 8F\yy	8ff\Jyy
*Xrep	*
=107	=107
8cLyy 8B-yy 8F\yy	8ee\Lyy
8cJyy 8B-yy 8F\yy	8cc\Jyy
*repy	*
8cLyy 8B-yy 8F\yy	8.gg\Lyy
8cJyy 8B-yy 8F\yy	.
.	16ee\Jkyy
*Xrep	*
=108	=108
8cL 8A 8F\	8ff\L
8cJ 8A 8F\	16ff\L
.	16ff\JJ
8c 8A 8F\	8ff\L
8r	8ff\J
=109	=109
8B-L 8F 8BB-\	8dd\L
8B-J 8F 8BB-\	8dd\J
8B- 8F 8BB-\	16cc#X\LL
.	16dd\
8r	16ee\
.	16dd\JJ
=110	=110
8B-L 8G 8E 8C\	16ccn\LL
.	16dd\
8B-J 8G 8E 8C\	16ee\
.	16ff\JJ
8B- 8G 8E 8C\	16gg\LL
.	16aa\
8r	16bbn\
.	16ccc\JJ
=111	=111
8AL 8F 8C\	16ff\LL
.	16gg\
8AJ 8F 8C\	16aa\
.	16bb-\JJ
8A 8F 8C\	16ccc\LL
.	16aa\
8r	16bb-\
.	16gg\JJ
=112	=112
8cL 8A 8F\	8ff\L
8cJ 8A 8F\	8ff\J
8c 8A 8F\	16ee\LL
.	16ff\
8r	16gg\
.	16ff\JJ
=113	=113
8B-L 8F 8BB-\	8dd\L
8B-J 8F 8BB-\	8dd\J
8B- 8F 8BB-\	16cc#X\LL
.	16dd\
8r	16ee\
.	16dd\JJ
=114	=114
*tremolo	*
8B-L 8G 8E 8C\	16ccn\LL
.	16dd\
8B-J 8G 8E 8C\	16ee\
.	16ff\JJ
8B-L 8G 8E 8C\	16gg\LL
.	16aa\
8B-J 8G 8E 8C\	16bb-\
.	16gg\JJ
*Xtremolo	*
=115	=115
8AL 8F\	8ff\L
8C\J	8aaJ 8cc\
4FF/	4ff 4a\
=:|!	=:|!
*-	*-
!!!system-decoration: {(s1,s2)}
!!!AIN: 2 forte
!!!ENC: Marta Lawrence
!!!END: 2021-06-02
!!!ENC: Marcin Jachim
!!!END: 2021-04-24
